src/images/svg/symbols/markets-stocks-and-indices/american-stocks/stocks-alphabet-inc-class-c.svg

<svg width="32" height="32" viewBox="0 0 32 32" fill="none" xmlns="http://www.w3.org/2000/svg">
<path d="M0 16C0 7.16344 7.16344 0 16 0V0C24.8366 0 32 7.16344 32 16V16C32 24.8366 24.8366 32 16 32V32C7.16344 32 0 24.8366 0 16V16Z" fill="#F2F3F4"/>
<path d="M26.5555 16.6291V15.0294H26.02V14.5044H26.5555V13.5721H27.1285V14.5066H27.8785V15.0316H27.1285V16.5856C27.1285 16.9284 27.2717 17.0836 27.5395 17.0836C27.6292 17.0878 27.7186 17.0708 27.8005 17.0341L28 17.5261C27.854 17.5856 27.697 17.6132 27.5395 17.6071C27.407 17.6229 27.2727 17.6085 27.1465 17.565C27.0204 17.5215 26.9057 17.4501 26.8111 17.356C26.7164 17.262 26.6443 17.1477 26.6 17.0218C26.5558 16.896 26.5405 16.7617 26.5555 16.6291V16.6291ZM22.8632 16.0291C22.8515 15.8235 22.8812 15.6177 22.9505 15.4238C23.0198 15.2298 23.1274 15.0518 23.2668 14.9003C23.4062 14.7487 23.5746 14.6267 23.7621 14.5414C23.9495 14.4561 24.1521 14.4093 24.358 14.4039C24.567 14.3987 24.7747 14.4382 24.9672 14.5199C25.1596 14.6016 25.3324 14.7234 25.4739 14.8774C25.6154 15.0313 25.7223 15.2137 25.7876 15.4123C25.8528 15.611 25.8747 15.8213 25.852 16.0291C25.852 16.0726 25.846 16.1349 25.846 16.1349H23.4363C23.4341 16.2645 23.4576 16.3933 23.5056 16.5137C23.5536 16.6342 23.625 16.7439 23.7157 16.8366C23.8064 16.9292 23.9145 17.0029 24.0339 17.0535C24.1534 17.104 24.2816 17.1303 24.4113 17.1309C24.5877 17.1413 24.7631 17.0963 24.9128 17.0021C25.0624 16.908 25.1789 16.7694 25.246 16.6059L25.75 16.8256C25.6389 17.0834 25.4519 17.3012 25.214 17.4502C24.9761 17.5992 24.6984 17.6722 24.418 17.6596C24.2067 17.6633 23.997 17.6233 23.8019 17.542C23.6069 17.4608 23.4307 17.3401 23.2845 17.1876C23.1383 17.0351 23.0252 16.8539 22.9523 16.6556C22.8794 16.4573 22.8484 16.246 22.861 16.0351L22.8632 16.0291ZM24.3453 14.9266C24.1375 14.9297 23.9371 15.0045 23.7783 15.1385C23.6194 15.2725 23.5118 15.4573 23.4738 15.6616H25.2423C25.2188 15.4463 25.1115 15.2488 24.9437 15.1118C24.7759 14.9749 24.5609 14.9094 24.3453 14.9296V14.9266ZM20.056 17.1309H20.0312V17.5539H19.483V13.0996H20.056V14.5066L20.0312 14.9296H20.056C20.1718 14.7625 20.3276 14.6269 20.5091 14.5352C20.6907 14.4435 20.8922 14.3986 21.0955 14.4046C21.5034 14.4278 21.8854 14.6121 22.1576 14.9168C22.4297 15.2216 22.5697 15.6219 22.5467 16.0299C22.5695 16.4377 22.4294 16.8378 22.1573 17.1424C21.8852 17.447 21.5033 17.6311 21.0955 17.6544C20.8926 17.6608 20.6913 17.6166 20.5098 17.5258C20.3283 17.4349 20.1723 17.3002 20.056 17.1339V17.1309ZM21.9738 16.0291C21.9909 15.8914 21.9786 15.7517 21.9376 15.6191C21.8966 15.4866 21.8279 15.3642 21.7361 15.2603C21.6442 15.1563 21.5313 15.073 21.4049 15.016C21.2784 14.9589 21.1412 14.9294 21.0025 14.9294C20.8638 14.9294 20.7266 14.9589 20.6001 15.016C20.4737 15.073 20.3608 15.1563 20.2689 15.2603C20.1771 15.3642 20.1084 15.4866 20.0674 15.6191C20.0264 15.7517 20.0141 15.8914 20.0312 16.0291C20.0141 16.1668 20.0264 16.3065 20.0674 16.4391C20.1084 16.5716 20.1771 16.694 20.2689 16.798C20.3608 16.9019 20.4737 16.9852 20.6001 17.0423C20.7266 17.0993 20.8638 17.1288 21.0025 17.1288C21.1412 17.1288 21.2784 17.0993 21.4049 17.0423C21.5313 16.9852 21.6442 16.9019 21.7361 16.798C21.8279 16.694 21.8966 16.5716 21.9376 16.4391C21.9786 16.3065 21.9909 16.1668 21.9738 16.0291V16.0291ZM16.1838 16.6291C16.1838 15.9376 16.8063 15.5641 17.5225 15.5641C17.8086 15.5583 18.0918 15.6224 18.3475 15.7509V15.6706C18.3333 15.4952 18.2621 15.3293 18.145 15.198C18.0278 15.0668 17.8709 14.9774 17.6983 14.9434C17.5256 14.9094 17.3466 14.9328 17.1884 15.0099C17.0303 15.087 16.9016 15.2137 16.822 15.3706L16.297 15.1456C16.4027 14.91 16.5782 14.7126 16.7999 14.5801C17.0215 14.4475 17.2784 14.3863 17.536 14.4046C17.7137 14.3898 17.8925 14.4131 18.0605 14.4729C18.2285 14.5326 18.3818 14.6275 18.5102 14.7513C18.6386 14.875 18.7391 15.0246 18.8051 15.1903C18.871 15.3559 18.9009 15.5337 18.8927 15.7119V17.5546H18.3453V17.1316H18.325C18.2173 17.2981 18.0683 17.434 17.8927 17.526C17.717 17.6179 17.5205 17.6629 17.3223 17.6566C17.1794 17.6695 17.0354 17.6528 16.8992 17.6077C16.7631 17.5625 16.6377 17.4897 16.5309 17.394C16.4241 17.2982 16.3381 17.1815 16.2784 17.051C16.2187 16.9206 16.1865 16.7793 16.1838 16.6359V16.6291ZM18.3505 16.2369C18.1353 16.0936 17.8796 16.0236 17.6215 16.0374C17.0215 16.0374 16.7815 16.3614 16.7815 16.6374C16.7815 16.9614 17.1175 17.1234 17.4167 17.1234C17.6542 17.1201 17.8818 17.0279 18.0547 16.865C18.2275 16.7022 18.3331 16.4805 18.3505 16.2436V16.2369ZM13.5872 14.4999L13.5625 14.9229H13.5872C13.6921 14.7623 13.8352 14.6302 14.0036 14.5386C14.1721 14.4469 14.3607 14.3986 14.5525 14.3979C14.7178 14.3904 14.8827 14.4194 15.0354 14.4829C15.1882 14.5465 15.3251 14.6429 15.4363 14.7654C15.5475 14.8878 15.6304 15.0333 15.6789 15.1915C15.7275 15.3496 15.7406 15.5166 15.7172 15.6804V17.5479H15.1442V15.7756C15.1442 15.1404 14.8263 14.9289 14.3905 14.9289C14.1593 14.9472 13.9449 15.0566 13.7943 15.2329C13.6437 15.4093 13.5692 15.6382 13.5872 15.8694V17.5561H13.015V13.0996H13.5872V14.5066V14.4999ZM10.0953 17.1249H10.0705L10.0953 17.5479V18.8926H9.52225V14.4976H10.0705V14.9206H10.0953C10.2111 14.7535 10.3668 14.6179 10.5484 14.5262C10.7299 14.4345 10.9315 14.3896 11.1347 14.3956C11.5425 14.419 11.9244 14.6033 12.1963 14.9081C12.4683 15.2128 12.6082 15.613 12.5852 16.0209C12.608 16.4285 12.468 16.8286 12.196 17.1332C11.9241 17.4377 11.5424 17.622 11.1347 17.6454C10.9327 17.6528 10.7319 17.61 10.5505 17.5207C10.369 17.4315 10.2126 17.2985 10.0953 17.1339V17.1249ZM12.013 16.0231C12.0301 15.8854 12.0178 15.7457 11.9768 15.6131C11.9359 15.4806 11.8672 15.3582 11.7753 15.2543C11.6835 15.1503 11.5706 15.067 11.4441 15.01C11.3176 14.9529 11.1805 14.9234 11.0417 14.9234C10.903 14.9234 10.7659 14.9529 10.6394 15.01C10.5129 15.067 10.4 15.1503 10.3082 15.2543C10.2163 15.3582 10.1476 15.4806 10.1067 15.6131C10.0657 15.7457 10.0534 15.8854 10.0705 16.0231C10.0534 16.1608 10.0657 16.3005 10.1067 16.4331C10.1476 16.5656 10.2163 16.688 10.3082 16.792C10.4 16.8959 10.5129 16.9792 10.6394 17.0363C10.7659 17.0933 10.903 17.1228 11.0417 17.1228C11.1805 17.1228 11.3176 17.0933 11.4441 17.0363C11.5706 16.9792 11.6835 16.8959 11.7753 16.792C11.8672 16.688 11.9359 16.5656 11.9768 16.4331C12.0178 16.3005 12.0301 16.1608 12.013 16.0231ZM8.338 17.5479H8.9125V13.0996H8.3395L8.338 17.5479ZM5.68075 13.0996L4 17.5569H4.63525L5.071 16.3494H6.946L7.375 17.5569H8.01025L6.32875 13.0996H5.68075ZM5.992 13.8031H6.0175L6.74575 15.8139H5.26375L5.992 13.8031Z" fill="#ED1C24"/>
</svg>

<svg width="32" height="32" fill="none" xmlns="http://www.w3.org/2000/svg"><path d="M0 16C0 7.163 7.163 0 16 0s16 7.163 16 16-7.163 16-16 16S0 24.837 0 16Z" fill="#F2F3F4"/><path d="M26.555 16.63v-1.6h-.535v-.526h.535v-.932h.573v.935h.75v.525h-.75v1.554c0 .342.144.498.412.498.09.004.179-.013.26-.05l.2.492c-.146.06-.303.087-.46.081a.884.884 0 0 1-.985-.978Zm-3.692-.6a1.539 1.539 0 0 1 1.495-1.626 1.466 1.466 0 0 1 1.494 1.625c0 .044-.006.106-.006.106h-2.41a.978.978 0 0 0 .975.996.848.848 0 0 0 .835-.525l.504.22a1.383 1.383 0 0 1-1.332.834 1.532 1.532 0 0 1-1.557-1.625l.002-.006Zm1.482-1.103a.9.9 0 0 0-.871.735h1.768a.826.826 0 0 0-.897-.732v-.003Zm-4.289 2.204h-.025v.423h-.548V13.1h.573v1.407l-.025.423h.025a1.221 1.221 0 0 1 1.04-.525 1.542 1.542 0 0 1 1.45 1.625 1.54 1.54 0 0 1-1.45 1.624 1.223 1.223 0 0 1-1.04-.52v-.003Zm1.918-1.102a.98.98 0 1 0-1.943 0 .98.98 0 1 0 1.943 0Zm-5.79.6c0-.691.622-1.065 1.338-1.065.287-.006.57.058.826.187v-.08a.808.808 0 0 0-1.526-.3l-.525-.225a1.26 1.26 0 0 1 1.239-.741 1.254 1.254 0 0 1 1.357 1.307v1.843h-.548v-.423h-.02a1.151 1.151 0 0 1-1.003.525 1.047 1.047 0 0 1-1.138-1.021v-.007Zm2.166-.392a1.2 1.2 0 0 0-.729-.2c-.6 0-.84.324-.84.6 0 .324.337.486.636.486a.95.95 0 0 0 .933-.88v-.006ZM13.588 14.5l-.024.423h.024a1.159 1.159 0 0 1 .966-.525 1.125 1.125 0 0 1 1.164 1.282v1.868h-.573v-1.772c0-.636-.318-.847-.754-.847a.875.875 0 0 0-.803.94v1.687h-.572V13.1h.572v1.407-.007Zm-3.492 2.625h-.025l.025.423v1.345h-.573v-4.395h.548v.423h.025a1.22 1.22 0 0 1 1.04-.525 1.54 1.54 0 0 1 1.45 1.625 1.54 1.54 0 0 1-1.45 1.624 1.222 1.222 0 0 1-1.04-.511v-.01Zm1.918-1.102a.98.98 0 1 0-1.943 0 .98.98 0 1 0 1.943 0Zm-3.675 1.525h.575V13.1h-.574l-.001 4.448ZM5.681 13.1 4 17.557h.635l.436-1.208h1.875l.429 1.208h.635L6.33 13.1H5.68Zm.311.703h.026l.728 2.01H5.264l.728-2.01Z" fill="#ED1C24"/></svg>
